!!!!SEGMENT: pl-wtm--r-1539--008_stefani-jozef--msza-no-1-agnus-dei.krn
!!!cenid: 18xx:1768
!!!COM: Stefani, Józef
!!!COM-rismid: pe30024097
!!!CDT: 1800/04/16-1876/03/19
!!!CNT: Polish
!!!OPR: Msza No 1
!!!OTL: Agnus Dei
!!!OMV: 008
!!!PDT:
!!!AGN: Sacred; Mass
!!!SMS-siglum: PL-Wtm
!!!SMS-shelfmark: R 1539
!!!SMS-shelfwork: 001-008 M
!!!SMS-variant:
!!!SMS-altvar:
!!!NIFC-rismid: 1001120484
!!!URL-scan: http://repozytorium.nifc.pl/skany/pl-wtm-nut--r1539
!!!ONB-nifc: UWAGA: części Mszy: 1. Kyrie, 2. Gloria, 3. Graduale, 4. Credo, 5. Offertorium, 6. Sanctus, 7. Benedictus, 8. Agnus Dei. Uwaga: niektóre części razem z „przygrywkami”
**kern	**kern	**kern	**text	**text	**text	**text	**kern	**kern	**text	**dynam
*part4	*part4	*part3	*part3	*part3	*part3	*part3	*part2	*part1	*part1	*part1
*staff5	*staff4	*staff3	*staff3	*staff3	*staff3	*staff3	*staff2	*staff1	*staff1	*
*Iempty	*Iorgan	*Iempty	*	*	*	*	*Ialto	*Isoprn	*	*
*	*I"Organo	*I"Baſso	*	*	*	*	*I"Alto	*I"Soprano	*	*
*	*I'org	*I'B	*	*	*	*	*I'A	*I'S	*	*
*clefF4	*clefG2	*clefF4	*	*	*	*	*clefG2	*clefG2	*	*
*k[b-]	*k[b-]	*k[b-]	*	*	*	*	*k[b-]	*k[b-]	*	*
*F:	*F:	*F:	*	*	*	*	*F:	*F:	*	*
*M4/4	*M4/4	*M4/4	*	*	*	*	*M4/4	*M4/4	*	*
*met(c)	*met(c)	*met(c)	*	*	*	*	*met(c)	*met(c)	*	*
*>[A,A1,A,A1,A,A1,A,A2,B]	*>[A,A1,A,A1,A,A1,A,A2,B]	*>[A,A1,A,A1,A,A1,A,A2,B]	*	*	*	*	*>[A,A1,A,A1,A,A1,A,A2,B]	*>[A,A1,A,A1,A,A1,A,A2,B]	*	*
=1	=1	=1	=1	=1	=1	=1	=1	=1	=1	=1
*>A	*>A	*>A	*	*	*	*	*>A	*>A	*	*
*	*	*2\right	*	*	*	*	*	*	*	*
!!LO:TX:t=P:problem:4\ 8\right:global
!	!	!	!	!	!	!	!	!LO:TX:a:t=Agnus Dei.	!	!
!	!	!	!	!	!	!	!	!LO:TX:a:t=Andante.	!	!
1F [1c	2f/ 2a	2F\	1.)_Dzie	2.)_Pa	3.)_Nie	4.)_Bo	2f/	2a/	Dzie-	p
.	4g/ 4b-	4F\	-ci	-nem	-chaj	-ży	4g/	4b-\	-ci	.
.	4a/ 4cc	4F\	nie-	ty	w_Chry-	ba-	4a/	4cc\	nie-	.
=2	=2	=2	=2	=2	=2	=2	=2	=2	=2	=2
*	*^	*	*	*	*	*	*	*	*	*
1E 1c]	2cc/	1e	2C\ 2c	-go-	na-	-stu-	-ran-	2e/	(4.cc\	-go-	.
.	.	.	.	.	.	.	.	.	8g/)	.	.
.	2g/	.	4C/	-dne	-szym	-sa	-ku	4e/	4g/	-dne	.
.	.	.	4C/	tak	i	i-	coś	4e/	4g/	tak	.
=3	=3	=3	=3	=3	=3	=3	=3	=3	=3	=3	=3
*2\right	*	*	*	*	*	*	*	*	*	*	*
!	!	!	!	!	!	!	!	!	!	!	!LO:DY:a
2F\ 2A	2f/	1d	2D/	wiel-	Oj-	-dzie-	zma-	2d/	2f/	wiel-	<
2BB-\ 2B-	2g/	.	4BB-/	-kiej	-cem	-my	-zał	4d/	4g/	-kiej	.
.	.	.	4BB-/	o-	na	przy-	grzech	(>4d/	4g/	o-	[[
*	*v	*v	*	*	*	*	*	*	*	*	*
=4	=4	=4	=4	=4	=4	=4	=4	=4	=4	=4
*	*^	*	*	*	*	*	*	*	*	*
!	!	!	!	!	!	!	!	!	!	!	!LO:DY:a
!	!	!	!	!	!	!	!	!	!	!	!LO:DY:a
1AA; 1A	1e; 1a	4d\	2AA/	-fia-	wie-	-kła-	świa-	4d/	2a/	-fia-	f >
.	.	8c#X\L	.	.	.	.	.	8c#X/L	.	.	.
.	.	8Bn\J	.	.	.	.	.	8Bn/J	.	.	.
.	.	2c#\	2AA;/	-ry	-ki	-dy	-ta	2c#;/)	2a;/	-ry	]]
=5	=5	=5	=5	=5	=5	=5	=5	=5	=5	=5	=5
!	!	!	!	!	!	!	!	!	!	!	!LO:DY:a
4FF/ 4F	2f/ 2a	4cn\	2.F\	z_Twe	Cho-	Czy-	A-	(4cn/	(2a/	z_Twe	p
2.F\ [2.c	.	4f\	.	.	.	.	.	4f/	.	.	.
.	4g/ 4b-	2ryy	.	.	.	.	.	4g/)	4b-/)	.	.
!	!	!	!LO:SIC:v:l:n=2:s=ciaż	!	!	!	!	!	!	!	!
.	4a/ 4cc	.	4F\	-go	-ciasz	-li	-by	4a/	4cc/	-go	.
!!LO:PB:g=original
=6	=6	=6	=6	=6	=6	=6	=6	=6	=6	=6	=6
1C 1G 1c]	2cc/	1e	2C\ 2c	sto-	sła-	w_szczęś	lud	2e/	(4.cc\	sto-	.
.	.	.	.	.	.	.	.	.	8g/)	.	.
!	!	!	!LO:SIC:v:l:n=4:s=Twój	!	!	!	!	!	!	!	!
.	2g/	.	2C/	-łu	-bi	-ciu,	Twoj	2e/	2g/	-łu	.
*	*v	*v	*	*	*	*	*	*	*	*	*
=7	=7	=7	=7	=7	=7	=7	=7	=7	=7	=7
2F\ 2c	2f/ 2a	2F\	da-	po-	czy	żył	2f/	2a/	da-	.
2G\	2d/ 2f 2bn	2G\	-ry	-błą-	w_nie	bez-	2d/	2bn/	-ry	.
=8	=8	=8	=8	=8	=8	=8	=8	=8	=8	=8
*	*	*	*	*	*	*	*	*2\right	*	*
!	!	!LO:SIC:v:l:n=2:s=dzi	!	!	!	!	!	!	!	!
2.C\ 2.G	2f/ 2bn 2dd	2C/	bio-	-dzie-	-do-	-piecz-	2f/	2dd\	bio-	.
.	4e/ 4cc	4C/	-rą	-my	-li	-ny	4e/	4cc\	-rą	.
4C/	4r	4r	.	.	.	.	4r	4r	.	.
=9	=9	=9	=9	=9	=9	=9	=9	=9	=9	=9
*	*^	*	*	*	*	*	*	*	*	*
2E\	2g/ 2b-X	1c	2E\	Rę-	Prze-	On	U-	2g/	2b-\	Rę-	.
4F\	4f/ 4a	.	4F\	-ce	-cie	nam	-twierdź	4f/	4a/	-ce	.
4AA\ 4A	4f/	.	4A\	do	z_pod	po-	w_nas	4f/	4f/	do	.
*	*v	*v	*	*	*	*	*	*	*	*	*
=10	=10	=10	=10	=10	=10	=10	=10	=10	=10	=10
*^	*^	*	*	*	*	*	*	*	*	*
4B-/	2BB-\	2d/ 2dd	1f	2B-\	Oj-	Two-	-ka-	wia-	2f/	2dd\	Oj-	.
4F/	.	.	.	.	.	.	.	.	.	.	.	.
4A/	2AA\	2c/ 2cc	.	4A\	-ca	-jej	-zał	-rę	4f/	4cc\	-ca	.
4F/	.	.	.	4A\	po-	nie	i	i	4f/	4cc\	po-	.
*v	*v	*	*	*	*	*	*	*	*	*	*	*
!!LO:LB:g=original
=11	=11	=11	=11	=11	=11	=11	=11	=11	=11	=11	=11
*	*	*^	*	*	*	*	*	*	*	*	*
2GG/ 2G	4cc/	2e/	1c	2G\	-dno-	wyj-	wzo-	mi-	2e/	(4cc\	-dno-	.
.	4b-/	.	.	.	.	.	.	.	.	4b-\)	.	.
4FF/ 4F	4a/	4a\	.	4F\	-szą	-dziem	-ry	-łość	4f/	4a/	-szą	.
4AA/ 4A	4f/	4f\	.	4A\	po	o-	i	dla	4f/	4f/	po	.
*	*	*v	*v	*	*	*	*	*	*	*	*	*
=12	=12	=12	=12	=12	=12	=12	=12	=12	=12	=12	=12
2BB-\ 2B-	2d/ [2f 2dd	2.ryy	2B-\	da-	-pie-	śla-	bra-	2f/	2dd\	da-	.
8AA\L 8A	4c/ 4f] 4cc	.	4A\	-ry.	-ki	-dy	-ta	4f/	4cc\	-ry	.
8F\	.	.	.	.	.	.	.	.	.	.	.
8A\	4r	4rc	4r	.	.	.	.	4r	4r	.	.
8E\J	.	.	.	.	.	.	.	.	.	.	.
*	*v	*v	*	*	*	*	*	*	*	*	*
=13	=13	=13	=13	=13	=13	=13	=13	=13	=13	=13
*^	*	*	*	*	*	*	*	*	*	*
4F/	1F	2a/ 2cc	2F\	I	Gdy	Jak	Daj	2a/	(2cc\	I	.
4c/	.	.	.	.	.	.	.	.	.	.	.
4d/	.	4g#X/ 4bn	2F\	z_u-	Cię	żyć	nam	4g#X/	4bn\)	.	.
4c/	.	4a/ 4cc	.	.	.	.	.	4a/	4cc\	z_u-	.
*v	*v	*	*	*	*	*	*	*	*	*	*
=14	=14	=14	=14	=14	=14	=14	=14	=14	=14	=14
2F\ 2c	[1f 1a	2F\	-fnoś-	poś-	we-	po-	2f/	2a/	-fno-	.
2AA\ 2A	.	2A\	-cią	-ród	-dług	-kój	2f/	2a/	-ścią	.
=15	=15	=15	=15	=15	=15	=15	=15	=15	=15	=15
*^	*^	*^	*	*	*	*	*	*	*	*
2c/	1C	2.g/	4f\]	2c/	2C\	i	nas	Oj-	po-	(4f/	2.g/	i	.
.	.	.	8e\L	.	.	.	.	.	.	8e/L	.	.	.
.	.	.	8d\J	.	.	.	.	.	.	8d/J	.	.	.
*	*	*	*2\right	*	*	*	*	*	*	*	*	*	*
2C/	.	.	2e\	2C/	2C\	z_po-	czu-	-ca	-kój	4e/)	.	.	.
.	.	4cc/	.	.	.	.	.	.	.	4e/	4cc\	z_po-	.
*v	*v	*	*	*v	*v	*	*	*	*	*	*	*	*
*	*v	*v	*	*	*	*	*	*	*	*	*
=16	=16	=16	=16	=16	=16	=16	=16	=16	=16	=16
!	!	!LO:SIC:v:l:n=2:s=je	!	!	!	!	!	!	!	!
4D\	2b-/	(4D\	-ko-	-ie-	wo-	wiecz-	(4f/	2b-\	-ko-	.
4E\	.	4E\)	.	.	.	.	4g/)	.	.	.
4F\	8a/L	4F\	-rą	-my	-li	-ny	4f/	4a\	-rą	.
.	8ff/	.	.	.	.	.	.	.	.	.
4r	8cc/	4r	.	.	.	.	4r	4r	.	.
.	8a/J	.	.	.	.	.	.	.	.	.
!!LO:PB:g=original
=17	=17	=17	=17	=17	=17	=17	=17	=17	=17	=17
*^	*	*	*	*	*	*	*	*	*	*
4F/	1F	2a/ 2cc	2F\	I	Gdy	Jak	Daj	2a/	(2cc\	I	.
4c/	.	.	.	.	.	.	.	.	.	.	.
4d/	.	4g#X/ 4bn	2F\	z_u-	Cię	żyć	nam	4g#X/	4bn\)	.	.
4c/	.	4a/ 4cc	.	.	.	.	.	4a/	4cc\	z_u-	.
*v	*v	*	*	*	*	*	*	*	*	*	*
=18	=18	=18	=18	=18	=18	=18	=18	=18	=18	=18
2F\ 2c	1f 1a	2F\	-fnoś-	poś-	we-	po-	2f/	2a/	-fnoś-	.
2AA\ 2A	.	2A\	-cią	-ród	-dług	-kój	2f/	2a/	-cią	.
=19	=19	=19	=19	=19	=19	=19	=19	=19	=19	=19
*^	*^	*	*	*	*	*	*	*	*	*
2.c/	1C	2.g/	4f\	2c\	i	nas	Oj-	po-	(4f/	2.g/	i	.
.	.	.	8e\L	.	.	.	.	.	8e/L	.	.	.
.	.	.	8d\J	.	.	.	.	.	8d/J	.	.	.
.	.	.	2e\	2C/	z_po-	czu-	-ca	-kój	4e/)	.	.	.
4B-/	.	4cc/	.	.	.	.	.	.	4e/	4cc\	z_po-	.
*v	*v	*	*	*	*	*	*	*	*	*	*	*
*	*v	*v	*	*	*	*	*	*	*	*	*
=20	=20	=20	=20	=20	=20	=20	=20	=20	=20	=20
!LO:TX:t=1. 2. 3.	!	!	!	!	!	!	!	!	!	!
*>A1	*>A1	*>A1	*	*	*	*	*>A1	*>A1	*	*
!	!	!LO:SIC:v:l:n=2:s=je	!	!	!	!	!	!	!	!
[>2F\ [2A	(>[2f/	2F\	-ko-	-ie-	wo-	wiecz-	2f/	2f/	-ko-	.
*	*Xtuplet	*	*	*	*	*	*	*	*	*
4F\] 4A]	12f/L])	4F\	-rą	-my	-li	-ny	4f/	4f/	-rą	.
.	12c/	.	.	.	.	.	.	.	.	.
.	12d/J	.	.	.	.	.	.	.	.	.
4r	12e/L	4r	.	.	.	.	4r	4r	.	.
.	12f/	.	.	.	.	.	.	.	.	.
.	12g/J	.	.	.	.	.	.	.	.	.
=21:|!	=21:|!	=21:|!	=21:|!	=21:|!	=21:|!	=21:|!	=21:|!	=21:|!	=21:|!	=21:|!
!LO:TX:t=4.	!	!	!	!	!	!	!	!	!	!
*>A2	*>A2	*>A2	*	*	*	*	*>A2	*>A2	*	*
4F\ 4A	4f/	1ryy	.	.	.	.	1ryy	1ryy	.	.
2.FF/ 2.F	4a\ 4cc 4ff	.	.	.	.	.	.	.	.	.
.	4b-\ 4dd 4gg	.	.	.	.	.	.	.	.	.
.	4cc\ 4ee 4aa	.	.	.	.	.	.	.	.	.
!!LO:LB:g=original
=22	=22	=22	=22	=22	=22	=22	=22	=22	=22	=22
*>B	*>B	*>B	*	*	*	*	*>B	*>B	*	*
*M3/4	*M3/4	*M3/4	*	*	*	*	*M3/4	*M3/4	*	*
2.FF/ 2.F	8dd\L 8ff 8bb-	2.ryy	.	.	.	.	2.ryy	2.ryy	.	.
.	8cc\J 8ee 8aa	.	.	.	.	.	.	.	.	.
.	4b-\ 4dd 4gg	.	.	.	.	.	.	.	.	.
.	4a\ 4cc [4ff	.	.	.	.	.	.	.	.	.
=23	=23	=23	=23	=23	=23	=23	=23	=23	=23	=23
*	*^	*	*	*	*	*	*	*	*	*
2.C\ 2.c	4ff/]	2.g\ 2.b-	2.ryy	.	.	.	.	2.ryy	2.ryy	.	.
.	8ee/L	.	.	.	.	.	.	.	.	.	.
.	8dd/J	.	.	.	.	.	.	.	.	.	.
.	4ee/	.	.	.	.	.	.	.	.	.	.
=24	=24	=24	=24	=24	=24	=24	=24	=24	=24	=24	=24
2D\ 2d	2ff/	[2.f\ 2.a	2.ryy	.	.	.	.	2.ryy	2.ryy	.	.
4AA\ 4A	4cc#X/	.	.	.	.	.	.	.	.	.	.
=25	=25	=25	=25	=25	=25	=25	=25	=25	=25	=25	=25
2BB-\ 2B-	4.ee/	2f\]	2.ryy	.	.	.	.	2.ryy	2.ryy	.	.
.	8dd/L	.	.	.	.	.	.	.	.	.	.
8AA\L 8A	8cc/	8f#X\L	.	.	.	.	.	.	.	.	.
8GG\J 8G	8b-/J	8g\J	.	.	.	.	.	.	.	.	.
=26	=26	=26	=26	=26	=26	=26	=26	=26	=26	=26	=26
*^	*	*	*	*	*	*	*	*	*	*	*
4c/	2.C\	4fn/ 4a	2c\	2.ryy	.	.	.	.	2.ryy	2.ryy	.	.
4A/	.	4f/	.	.	.	.	.	.	.	.	.	.
4B-/	.	4g/ 4e	4ryy	.	.	.	.	.	.	.	.	.
*v	*v	*	*	*	*	*	*	*	*	*	*	*
*	*v	*v	*	*	*	*	*	*	*	*	*
!!LO:LB:g=original
=27	=27	=27	=27	=27	=27	=27	=27	=27	=27	=27
[2.F\ [2.B-	[2.c/ [>2.e [2.g	2.ryy	.	.	.	.	2.ryy	2.ryy	.	.
=28	=28	=28	=28	=28	=28	=28	=28	=28	=28	=28
*^	*	*	*	*	*	*	*	*	*	*
2B-/]	2.F\]	2c/] 2e] 2g]	2.ryy	.	.	.	.	2.ryy	2.ryy	.	.
4A/	.	4c/ 4f	.	.	.	.	.	.	.	.	.
*v	*v	*	*	*	*	*	*	*	*	*	*
=29	=29	=29	=29	=29	=29	=29	=29	=29	=29	=29
2.F;<\	2.A;/ 2.c 2.f	2.ryy	.	.	.	.	2.ryy	2.ryy	.	.
!!LO:PB:g=original
==	==	==	==	==	==	==	==	==	==	==
*-	*-	*-	*-	*-	*-	*-	*-	*-	*-	*-
!!!system-decoration: [(s1,s2,s3)]{(s4,s5)}
!!!RDF**kern: < = below
!!!RDF**kern: > = above
!!!ENC: Marta Chmielewska
!!!END: 2021-04-22
!!!ENC:Kamil Watkowski
!!!END:2021-04-07
